X: 30117
T: Old Blackthorn, The
R: reel
M: 4/4
K: Gmajor
BA|GDB,E DB,A,B,|G,DGF EDEF|GB,~B,2 DB,A,B,|CEDB, G,2BA|
GDB,E DB,A,B,|G,DGF EDEF|GB,~B,2 DB,A,B,|CEDB, G,2G,D||
GABG AB (3cBA|D2 (3FED ADFD|GABG A2Bc|dBcA BGAF|
GABG AB (3cBA|D2 (3FED ADFD|GABc d3c|BdAc BGBA||

